public/img/index_features/boxes.svg

<svg width="24" height="24" viewBox="0 0 24 24" fill="none" xmlns="http://www.w3.org/2000/svg">
<path d="M2.97 12.92C2.67476 13.0974 2.43033 13.348 2.26039 13.6476C2.09045 13.9472 2.00075 14.2856 2 14.63V17.87C2.00075 18.2144 2.09045 18.5528 2.26039 18.8524C2.43033 19.152 2.67476 19.4026 2.97 19.58L5.97 21.38C6.28106 21.5669 6.63711 21.6656 7 21.6656C7.36289 21.6656 7.71894 21.5669 8.03 21.38L12 19V13.5L7 10.5L2.97 12.92Z" stroke="#7190F9" stroke-width="2" stroke-linecap="round" stroke-linejoin="round"/>
<path d="M6.99977 16.4999L2.25977 13.6499" stroke="#7190F9" stroke-width="2" stroke-linecap="round" stroke-linejoin="round"/>
<path d="M7 16.5L12 13.5" stroke="#7190F9" stroke-width="2" stroke-linecap="round" stroke-linejoin="round"/>
<path d="M7 16.5V21.67" stroke="#7190F9" stroke-width="2" stroke-linecap="round" stroke-linejoin="round"/>
<path d="M12 13.5V19L15.97 21.38C16.2811 21.5669 16.6371 21.6656 17 21.6656C17.3629 21.6656 17.7189 21.5669 18.03 21.38L21.03 19.58C21.3252 19.4026 21.5697 19.152 21.7396 18.8524C21.9096 18.5528 21.9992 18.2144 22 17.87V14.63C21.9992 14.2856 21.9096 13.9472 21.7396 13.6476C21.5697 13.348 21.3252 13.0974 21.03 12.92L17 10.5L12 13.5Z" stroke="#7190F9" stroke-width="2" stroke-linecap="round" stroke-linejoin="round"/>
<path d="M17 16.5L12 13.5" stroke="#7190F9" stroke-width="2" stroke-linecap="round" stroke-linejoin="round"/>
<path d="M17 16.4999L21.74 13.6499" stroke="#7190F9" stroke-width="2" stroke-linecap="round" stroke-linejoin="round"/>
<path d="M17 16.5V21.67" stroke="#7190F9" stroke-width="2" stroke-linecap="round" stroke-linejoin="round"/>
<path d="M7.97 4.42009C7.67476 4.59747 7.43033 4.84809 7.26039 5.14768C7.09045 5.44727 7.00075 5.78566 7 6.13009V10.5001L12 13.5001L17 10.5001V6.13009C16.9992 5.78566 16.9096 5.44727 16.7396 5.14768C16.5697 4.84809 16.3252 4.59747 16.03 4.42009L13.03 2.62009C12.7189 2.43321 12.3629 2.33447 12 2.33447C11.6371 2.33447 11.2811 2.43321 10.97 2.62009L7.97 4.42009Z" stroke="#7190F9" stroke-width="2" stroke-linecap="round" stroke-linejoin="round"/>
<path d="M11.9998 7.9999L7.25977 5.1499" stroke="#7190F9" stroke-width="2" stroke-linecap="round" stroke-linejoin="round"/>
<path d="M12 7.9999L16.74 5.1499" stroke="#7190F9" stroke-width="2" stroke-linecap="round" stroke-linejoin="round"/>
<path d="M12 13.5V8" stroke="#7190F9" stroke-width="2" stroke-linecap="round" stroke-linejoin="round"/>
</svg>

<svg xmlns="http://www.w3.org/2000/svg" fill="none" viewBox="0 0 24 24"><path stroke="#7190F9" stroke-linecap="round" stroke-linejoin="round" stroke-width="2" d="M2.97 12.92A2 2 0 0 0 2 14.63v3.24a2 2 0 0 0 .97 1.71l3 1.8a2 2 0 0 0 2.06 0L12 19v-5.5l-5-3zM7 16.5l-4.74-2.85M7 16.5l5-3m-5 3v5.17m5-8.17V19l3.97 2.38a2 2 0 0 0 2.06 0l3-1.8a2 2 0 0 0 .97-1.71v-3.24a2 2 0 0 0-.97-1.71L17 10.5zm5 3-5-3m5 3 4.74-2.85M17 16.5v5.17"/><path stroke="#7190F9" stroke-linecap="round" stroke-linejoin="round" stroke-width="2" d="M7.97 4.42A2 2 0 0 0 7 6.13v4.37l5 3 5-3V6.13a2 2 0 0 0-.97-1.71l-3-1.8a2 2 0 0 0-2.06 0zM12 8 7.26 5.15M12 8l4.74-2.85M12 13.5V8"/></svg>
